X:1
T:I Love Thee, 11.11.11.11
T:I Love Thee, 11.11.11.11
T:Christian Harmony, by Jeremiah Ingalls, 1805
T:Public Domain Courtesy of the Cyber Hymnal™
C:Christian Harmony, by Jeremiah Ingalls, 1805
Z:Public Domain
Z:Courtesy of the Cyber Hymnal™
%%score ( 1 2 ) 3
L:1/8
M:3/4
K:Eb
V:1 treble 
V:2 treble 
V:3 bass 
V:1
 B,2 | [B,E]2 [B,E]2 [EG]2 | [GB]2 [GB]2 ([Ac][GB]) | [EG]2 [B,E]2 [DF]2 | [EG]4 B,2 | %5
 [B,E]2 [B,E]2 [EG]2 | [GB]2 [GB]2 ([Ac][GB]) | [EG]2 [B,E]2 [DF]2 | E4 [EB]2 | [EB]2 [EG]2 [GB]2 | %10
 [Ae]2 [Ac]2 [Ac]2 | [GB]2 [EG]2 E2 | [DB]4 B,2 | [B,E]2 [B,E]2 [EG]2 | [GB]2 [GB]2 ([Ac][GB]) | %15
 [EG]2 [B,E]2 [DF]2 | [B,E]4 |] %17
V:2
 B,2 | x6 | x6 | x6 | x4 B,2 | x6 | x6 | x6 | x6 | x6 | x6 | x6 | x4 B,2 | x6 | x6 | x6 | x4 |] %17
V:3
 [E,G,]2 | [E,G,]2 [E,G,]2 [E,B,]2 | [E,E]2 [E,E]2 [A,,E]2 | [B,,B,]2 [B,,G,]2 [B,,B,]2 | %4
 [E,B,]4 [E,G,]2 | [E,G,]2 [E,G,]2 [E,B,]2 | [E,E]2 [E,E]2 [A,,E]2 | [B,,B,]2 [B,,G,]2 [B,,A,]2 | %8
 [E,G,]4 [E,G,]2 | [E,G,]2 [E,B,]2 [E,E]2 | [A,,C]2 [A,,E]2 [A,,E]2 | [E,E]2 [E,B,]2 [C,=A,]2 | %12
 [B,,B,]4 [B,,A,]2 | [E,G,]2 [E,G,]2 [E,B,]2 | [E,E]2 [E,E]2 [A,,E]2 | [B,,B,]2 [B,,G,]2 [B,,A,]2 | %16
 [E,G,]4 |] %17

